X:1
T:Title
%%score { ( 1 3 ) | ( 2 4 ) }
L:1/8
M:4/4
K:C
V:1 treble nm="Grand Piano"
V:3 treble 
V:2 bass 
V:4 bass 
V:1
 z4 z2[Q:1/4=100] [CE][DF] | [EG]2 [_E^F][=EG] [Ec]2 [EB][Ec] | [Fd]2 [Fc][FA] [EG]2 [CE][DF] | %3
 [EG]2 [_E^F][=EG] [Fe]2 [Fd][FA] | [Fd]6 [CE][DF] | [EG]2 [_E^F][=EG] [Ec]2 [EB][Ec] | %6
 [Fd]2 [Fc][FA] [EG]2 [_E^F][=EG] | A2 ^GA B2 cd |[M:3/4] [Ec]6 |[M:1/4] [Ec]2 | %10
[M:4/4] B2 _B=B d2 ed | [Ec]2 [FB][B,FA] [CEG]3 [CG] | [C^FA]2 [B,=F^G][C^FA] [EFc]2 [DFB][CFA] | %13
[M:3/4] F4- [FA]2 |[M:1/4] G2 |[M:4/4] [EG]2 [_E^F][=EG] [Ec]2 [EB][Ec] | %16
 [Fd]2 [Fc][FA] [EG]2 [_E^F]G | A2 ^GA B2 cd |[M:3/4] [Ec]6 |] %19
V:2
 z4 z2 [C,G,][C,G,] | [C,C]2 [C,C][C,C] [C,G,]2 [C,G,][C,G,] | %2
 [C,A,]2 [C,A,][C,B,] [C,C]2 [C,G,][C,G,] | [C,C]2 [C,C][C,C] [D,C]2 [D,C][D,C] | %4
 [G,B,]6 [C,G,][C,G,] | [C,C]2 [C,C][C,C] [C,G,]2 [C,G,][C,G,] | %6
 [C,A,]2 [C,A,][C,B,] [C,C]2 [C,C][C,C] | [F,CF]2 [F,CF][F,CF] [G,F]2 [G,A,F][G,B,F] | %8
[M:3/4][K:bass] [C,C]6 |[M:1/4] [C,C]2 | %10
[M:4/4][K:treble] [G,DF]2 [G,DF][G,DF] [G,B,F]2 [G,B,F][G,B,F] | [C,G,]2 [C,A,]C, C,3 E, | %12
 D,2 D,D, D,2 D,D, |[M:3/4] z2 z2[K:treble] C2 |[M:1/4] [G,B,F]2 | %15
[M:4/4][K:bass] [C,C]2 [C,C][C,C] [C,G,]2 [C,G,][C,G,] | %16
 [C,A,]2 [C,A,][C,B,] [C,C]2 z[K:treble] E | [F,CF]2 [F,CF][F,CF] [G,F]2 [G,A,F][G,B,F] | %18
[M:3/4][K:bass] [C,C]6 |] %19
V:3
 x8 | x8 | x8 | x8 | x8 | x8 | x8 | x8 |[M:3/4] x6 |[M:1/4] x2 |[M:4/4] x8 | x8 | x8 | %13
[M:3/4] [DB]4 z2 |[M:1/4] x2 |[M:4/4] x8 | x8 | x8 |[M:3/4] x6 |] %19
V:4
 x8 | x8 | x8 | x8 | x8 | x8 | x8 | x8 |[M:3/4][K:bass] x6 |[M:1/4] x2 |[M:4/4][K:treble] x8 | x8 | %12
 x8 |[M:3/4] G,6[K:treble] |[M:1/4] x2 |[M:4/4][K:bass] x8 | z4 z2 [C,C]2[K:treble] | x8 | %18
[M:3/4][K:bass] x6 |] %19

